public/icons/states/la.svg

<svg xmlns="http://www.w3.org/2000/svg" width="24" height="24" viewBox="328.333 329.668 24.333 22.282"><path d="M341.956 349.109h.167l.12.048h-.143zm0 0h-.047zm1.217-.071-.095.071-.334.095h-.072zm1.003.071h-.215l-.215-.094.239.023zm.501-.094-.239.094.119-.165zm-.692-.759-.024.071.024-.166h.071zm1.789.071v-.095l.215-.165.096.094zm.454-.355-.096.095-.023-.048.095-.047zm2.935-.972-.119.047.214-.166V347zm-3.77-.024.381.119.048.142-.429-.142zm4.152-.166.167-.237-.096.19zm.525-.569-.024.048.024-.071zm-11.645.948h-.167l-.812-.521.454-.261.859.285zm11.812-1.161-.096.047.239-.355-.024.095zm-2.1-.356v.143l-.119-.143-.12.143.072-.308zm.382-.189.238-.071v.26l-.262-.165zm.238-.545v-.071l.167-.024v.095zm-.214.047h-.024l.238-.308-.095.166zm2.099.427-.167.213.167-.782-.262-.569.262.308.024.356zm-2.529-1.446v.023l-.048-.023.048-.048zm.835.189.167.143-.167.118-.119-.142-.406.024.692-.498-.286.284zm-17.897 1.66-.573.047-.525.237-.19-.379.047-.142.358-.071.167-.285-.143-.427.334-.403.048-.9-.143-.474.191-.474-.144-.451.692-1.138.167-.64-.167-.284.287-.142-.215-.261.048-.403-.215-.071-.286-.569.095-.261-.406-.474.096-.189-.382-.332-.024-.948-.835-.996.095-4.717h11.383l.024.19.358.237-.358.711.405.237-.405.261.286.402v.498l.74.759-.453.711-.263.024v.616l-1.026.877-.286 1.209-.382.332.119.426-.119.569-.477.095.31.948-.334.308 7.779-.094-.43 1.469.215.522.525.569.454 1.043.191.118-.263.166v-.119l-.477.095-.143-.308-.979-.142-.31-.427-.549-.118-.883.829-.119.308.215.309.978.26.644-.142.43-.45.382.189.214-.308v.308l.263-.189-.143-.095h.167l.095.095-.286.498-.31-.072-.191.19.095.285.477-.024-.071.142.215.237.286-.095.119-.545.358-.308.239.142.215-.047-.334.332.334.142-.239.095.095.142.144-.095-.096.142h.263l-.167.237.143.214-.287.118-.31-.308-.191.332-.214.142.023.213h.263l.143.261-.883-.355.358.403-.573-.048.311.498.668.261-.024.308h.764l-.144.142.43.071.119.166.215-.166.358.356-.143.189.453.071.119.166-.334.095.311.024-.215.308-.096-.19.024.261-.095-.095-.119.237.047.19-.525-.474v.19l-.191.094-.429.593.525-1.114-.096.118-.095-.237v.309l-.239.189-.453-.735.143-.047h-.62l-.096-.403-.262.118h-.573l.31-.213-.071-.284-.287-.048.096-.189h-.191l-.024.142-.286-.048-.716-.379-.12.071-.191-.26-.119.308.74.403v.45l-.048-.095.143.237-.334.095.048.237h.143l-.262.379-.525.309-.072-.83-.143.142-.215-.332-.191.308-.262-.545-.143.332-.478-.095.072.403-.167-.071-.096.498-.023-.142-.43.284-.191-.071.119-.213-.238-.095-.167.284-.525-.213-.048-.237-.262.166-.86-.285-.143-.165-.071-.238.191.095.286-.284.024.166.215.023.071.403.119-.071v-.332l-.596-.592.095-.664h-.095l-.119.616-.549-.189v-.19l-.573.119v-.522h-.334v-.474l-.907.142.024-.497h-.525l-.644.45v-.166l-.263.047.12.309.31-.119-.167.142.143.332.31-.071-.143.19-1.05.237-1.623-.308-2.052-.83z"/></svg>

<svg xmlns="http://www.w3.org/2000/svg" width="24" height="24" viewBox="328.333 329.668 24.33299999999997 22.281999999999982">
  <path
     d="M341.956 349.109H342.123L342.243 349.157H342.1L341.956 349.109ZM341.956 349.109H341.909H341.956ZM343.173 349.038L343.078 349.109L342.744 349.204H342.672L343.173 349.038ZM344.176 349.109H343.961L343.746 349.015L343.985 349.038L344.176 349.109ZM344.677 349.015L344.438 349.109L344.557 348.944L344.677 349.015ZM343.985 348.256L343.961 348.327L343.985 348.161H344.056L343.985 348.256ZM345.774 348.327V348.232L345.989 348.067L346.085 348.161L345.774 348.327ZM346.228 347.972L346.132 348.067L346.109 348.019L346.204 347.972H346.228ZM349.163 347L349.044 347.047L349.258 346.881V347H349.163ZM345.393 346.976L345.774 347.095L345.822 347.237L345.393 347.095V346.976ZM349.545 346.81L349.712 346.573L349.616 346.763L349.545 346.81ZM350.07 346.241L350.046 346.289L350.07 346.218V346.241ZM338.425 347.189H338.258L337.446 346.668L337.9 346.407L338.759 346.692L338.425 347.189ZM350.237 346.028L350.141 346.075L350.38 345.72L350.356 345.815L350.237 346.028ZM348.137 345.672V345.815L348.018 345.672L347.898 345.815L347.97 345.507L348.137 345.672ZM348.519 345.483L348.757 345.412V345.672L348.495 345.507L348.519 345.483ZM348.757 344.938V344.867L348.924 344.843V344.938H348.757ZM348.543 344.985H348.519L348.757 344.677L348.662 344.843L348.543 344.985ZM350.642 345.412L350.475 345.625L350.642 344.843L350.38 344.274L350.642 344.582L350.666 344.938L350.642 345.412ZM348.113 343.966V343.989L348.065 343.966L348.113 343.918V343.966ZM348.948 344.155L349.115 344.298L348.948 344.416L348.829 344.274L348.423 344.298L349.115 343.8L348.829 344.084L348.948 344.155ZM331.051 345.815L330.478 345.862L329.953 346.099L329.763 345.72L329.81 345.578L330.168 345.507L330.335 345.222L330.192 344.795L330.526 344.392L330.574 343.492L330.431 343.018L330.622 342.544L330.478 342.093L331.17 340.955L331.337 340.315L331.17 340.031L331.457 339.889L331.242 339.628L331.29 339.225L331.075 339.154L330.789 338.585L330.884 338.324L330.478 337.85L330.574 337.661L330.192 337.329L330.168 336.381L329.333 335.385L329.428 330.668H340.811L340.835 330.858L341.193 331.095L340.835 331.806L341.24 332.043L340.835 332.304L341.121 332.706V333.204L341.861 333.963L341.408 334.674L341.145 334.698V335.314L340.119 336.191L339.833 337.4L339.451 337.732L339.57 338.158L339.451 338.727L338.974 338.822L339.284 339.77L338.95 340.078L346.729 339.984L346.299 341.453L346.514 341.975L347.039 342.544L347.493 343.587L347.684 343.705L347.421 343.871V343.752L346.944 343.847L346.801 343.539L345.822 343.397L345.512 342.97L344.963 342.852L344.08 343.681L343.961 343.989L344.176 344.298L345.154 344.558L345.798 344.416L346.228 343.966L346.61 344.155L346.824 343.847V344.155L347.087 343.966L346.944 343.871H347.111L347.206 343.966L346.92 344.464L346.61 344.392L346.419 344.582L346.514 344.867L346.991 344.843L346.92 344.985L347.135 345.222L347.421 345.127L347.54 344.582L347.898 344.274L348.137 344.416L348.352 344.369L348.018 344.701L348.352 344.843L348.113 344.938L348.208 345.08L348.352 344.985L348.256 345.127H348.519L348.352 345.364L348.495 345.578L348.208 345.696L347.898 345.388L347.707 345.72L347.493 345.862L347.516 346.075H347.779L347.922 346.336L347.039 345.981L347.397 346.384L346.824 346.336L347.135 346.834L347.803 347.095L347.779 347.403H348.543L348.399 347.545L348.829 347.616L348.948 347.782L349.163 347.616L349.521 347.972L349.378 348.161L349.831 348.232L349.95 348.398L349.616 348.493L349.927 348.517L349.712 348.825L349.616 348.635L349.64 348.896L349.545 348.801L349.426 349.038L349.473 349.228L348.948 348.754V348.944L348.757 349.038L348.328 349.631L348.853 348.517L348.757 348.635L348.662 348.398V348.707L348.423 348.896L347.97 348.161L348.113 348.114H347.493L347.397 347.711L347.135 347.829H346.562L346.872 347.616L346.801 347.332L346.514 347.284L346.61 347.095H346.419L346.395 347.237L346.109 347.189L345.393 346.81L345.273 346.881L345.082 346.621L344.963 346.929L345.703 347.332V347.782L345.655 347.687L345.798 347.924L345.464 348.019L345.512 348.256H345.655L345.393 348.635L344.868 348.944L344.796 348.114L344.653 348.256L344.438 347.924L344.247 348.232L343.985 347.687L343.842 348.019L343.364 347.924L343.436 348.327L343.269 348.256L343.173 348.754L343.15 348.612L342.72 348.896L342.529 348.825L342.648 348.612L342.41 348.517L342.243 348.801L341.718 348.588L341.67 348.351L341.408 348.517L340.548 348.232L340.405 348.067L340.334 347.829L340.525 347.924L340.811 347.64L340.835 347.806L341.05 347.829L341.121 348.232L341.24 348.161V347.829L340.644 347.237L340.739 346.573H340.644L340.525 347.189L339.976 347V346.81L339.403 346.929V346.407H339.069V345.933L338.162 346.075L338.186 345.578H337.661L337.017 346.028V345.862L336.754 345.909L336.874 346.218L337.184 346.099L337.017 346.241L337.16 346.573L337.47 346.502L337.327 346.692L336.277 346.929L334.654 346.621L332.602 345.791L331.051 345.815Z"
     fill="black"
     id="path70" />
</svg>
